!!!ONB: MCCC : IWM0412_01 : Extracted Monophonic Melody
!!!COM: Mozart, Wolfgang Amadeus
!!!OPR: Piano Sonata No.12
!!!OMV: 1
!!!SCT: K.332 ; K⁶.300k ; Op.6 No.3
!!!ODT: 1783///
**kern
*thru
*staff1
*>A
*clefG2
*k[b-]
*F:
*M3/4
*MM144
=1
2f
4a
=2
2cc
4a
=3
2b-
4gg
=4
8ff
8ee
4ee
4r
=5
4ff
4a
4dd
=6
4g
4.cc
8a
=7
2.f
=8
2.g
=9
4a
4b-
4dd
=10
8dd
8cc
8b-
8a
8g
8f
=11
4g
4b-
4e
=12
4f
4r
8.ccc
16bb-
=13
4aa
4aa
8.aa
16gg
=14
4ff
4ff
4ff
=15
4gg
4gg
4gg
=16
4gg
4aa
16ccc
16ddd
16ccc
16bb-
=17
4aa
4aa
16aa
16bb-
16aa
16gg
=18
4ff
4ff
4ff
=19
4gg
4bb-
4ee
=20
4ff
4r
4ccc
=21
4ff
4r
4cc
=22
4f
4r
4c#
=23
4.d
16f
16a
8dd
16a
16dd
=24
8ff
16dd
16ff
8aa
8aa
8ff
8dd
=25
4.bb-
16aa
16gg
16ff
16ee
16dd
16cc#
=26
4.bb-
16aa
16gg
16ff
16ee
16dd
16cc#
=27
4.dd
16f
16a
8dd
16a
16dd
=28
8ff
16dd
16ff
8aa
8aa
8ff
8dd
=29
4.aa-
16gg
16ff
16ee-
16dd
16cc
16b
=30
4.aa-
16gg
16ff
16ee-
16dd
16cc
16b
=31
[4cc
16cc]
16g
16cc
16g
16ee-
16cc
16ee-
16cc
=32
16gg
16ee-
16gg
16ee-
4ccc
4r
=33
[4cc
16cc]
16a-
16cc
16a-
16ee-
16cc
16ee-
16cc
=34
16aa-
16ee-
16aa-
16ee-
4ccc
4r
=35
[4cc
16cc]
16f#
16cc
16f#
16ee-
16cc
16ee-
16cc
=36
16ff#
16ee-
16ff#
16ee-
4ccc
4ff#
=37
2gg
16ff
16ee-
16dd
16cc
=38
2gg
16ff
16ee-
16dd
16cc
=39
4.gg
16aa-
16gg
16ff
16ee-
16dd
16cc
=40
4gg
4g
4r
=41
8ee
8r
8ee
8r
8ee
8r
=42
4.gg
8ff
4dd
=43
8dd
8cc
4.cc
8dd
=44
2dd
4ee
=45
4.ff
8ff
8gg
8aa
=46
8aa
8gg
8ff#
8gg
8ff
8dd
=47
8dd#
8ee
8ff
8ee
8gg
8ff
=48
8ee
8dd
8cc
8b
8a
8g
=49
8dd#
8ee
8dd#
8ee
8dd#
8ee
=50
8ff#
8gg
8ff#
8gg
8ff
8dd
=51
8dd
8cc
8dd
8cc
8ee
8dd
=52
4.dd
8dd#
4ee
=53
4.ff
8ff
8gg
8aa
=54
8aa
8gg
8ff#
8gg
8ff
8dd
=55
8dd#
8ee
8gg
8ff
8dd
8b
=56
8cc
8g
8r
8g
8r
8g
=57
8g
8g
8r
8g
8r
8g
=58
8g
8g
8r
8g
8r
8g
=59
8g
8g
8r
8g
8r
8g
=60
8g
8g
8r
8g
8r
8g
=61
8a-
8a-
8r
8a-
8r
8a-
=62
8a-
8a-
8r
8a-
8r
8a-
=63
8g
8g
8r
8g
8r
8g
=64
8g
8g
8r
8g
8f
8f
=65
8r
8f
8f
8f
8r
8f
=66
8r
8e-
8r
8e-
8r
8e-
=67
8d
8g
8f
8e-
8d
8e-
=68
8d
8g
8f
8e-
8d
8e-
=69
8d
8e-
8d
8e-
8d
8e-
=70
8d
8c#
8d
8e
8f
8g
=71
4a
4a
4a
=72
2a
4g
=73
16g
8.f
4f
4f
=74
2f
4e
=75
8g
8f
4e
4d
=76
8e
8cc
8dd
8ee
8ff
8gg
=77
4aa
4aa
4aa
=78
4.aa
16bb
16aa
4gg
=79
16gg
8.ff
4ff
4ff
=80
2ff
4ee
=81
8gg
8ff
4ee
4dd
=82
8gg
8gg
8r
8ff
8r
8ee
=83
8r
8dd
8r
8cc
8r
8b
=84
16r
16ee
16gg
16ee
16r
16dd
16ff
16dd
16r
16cc
16ee
16cc
=85
16r
16f
16dd
16f
16r
16e
16cc
16e
16r
16d
16b
16d
=86
4cc
4r
8.ee
32dd
32cc
=87
2gg
8.bb
32aa
32gg
=88
2ccc
8.ee
32dd
32cc
=89
4gg
4gg
8.bb
32aa
32gg
=90
4ccc
4.eee
8gg#
=91
4aa
4.ccc
8ee
=92
8.ff
32ee
32dd
4gg
4bb
=93
4ccc
4c
4r
=94
*>A
*M3/4
2f
4a
=95
2cc
4a
=96
2b-
4gg
=97
8ff
8ee
4ee
4r
=98
4ff
4a
4dd
=99
4g
4.cc
8a
=100
2.f
=101
2.g
=102
4a
4b-
4dd
=103
8dd
8cc
8b-
8a
8g
8f
=104
4g
4b-
4e
=105
4f
4r
8.ccc
16bb-
=106
4aa
4aa
8.aa
16gg
=107
4ff
4ff
4ff
=108
4gg
4gg
4gg
=109
4gg
4aa
16ccc
16ddd
16ccc
16bb-
=110
4aa
4aa
16aa
16bb-
16aa
16gg
=111
4ff
4ff
4ff
=112
4gg
4bb-
4ee
=113
4ff
4r
4ccc
=114
4ff
4r
4cc
=115
4f
4r
4c#
=116
4.d
16f
16a
8dd
16a
16dd
=117
8ff
16dd
16ff
8aa
8aa
8ff
8dd
=118
4.bb-
16aa
16gg
16ff
16ee
16dd
16cc#
=119
4.bb-
16aa
16gg
16ff
16ee
16dd
16cc#
=120
4.dd
16f
16a
8dd
16a
16dd
=121
8ff
16dd
16ff
8aa
8aa
8ff
8dd
=122
4.aa-
16gg
16ff
16ee-
16dd
16cc
16b
=123
4.aa-
16gg
16ff
16ee-
16dd
16cc
16b
=124
[4cc
16cc]
16g
16cc
16g
16ee-
16cc
16ee-
16cc
=125
16gg
16ee-
16gg
16ee-
4ccc
4r
=126
[4cc
16cc]
16a-
16cc
16a-
16ee-
16cc
16ee-
16cc
=127
16aa-
16ee-
16aa-
16ee-
4ccc
4r
=128
[4cc
16cc]
16f#
16cc
16f#
16ee-
16cc
16ee-
16cc
=129
16ff#
16ee-
16ff#
16ee-
4ccc
4ff#
=130
2gg
16ff
16ee-
16dd
16cc
=131
2gg
16ff
16ee-
16dd
16cc
=132
4.gg
16aa-
16gg
16ff
16ee-
16dd
16cc
=133
4gg
4g
4r
=134
8ee
8r
8ee
8r
8ee
8r
=135
4.gg
8ff
4dd
=136
8dd
8cc
4.cc
8dd
=137
2dd
4ee
=138
4.ff
8ff
8gg
8aa
=139
8aa
8gg
8ff#
8gg
8ff
8dd
=140
8dd#
8ee
8ff
8ee
8gg
8ff
=141
8ee
8dd
8cc
8b
8a
8g
=142
8dd#
8ee
8dd#
8ee
8dd#
8ee
=143
8ff#
8gg
8ff#
8gg
8ff
8dd
=144
8dd
8cc
8dd
8cc
8ee
8dd
=145
4.dd
8dd#
4ee
=146
4.ff
8ff
8gg
8aa
=147
8aa
8gg
8ff#
8gg
8ff
8dd
=148
8dd#
8ee
8gg
8ff
8dd
8b
=149
8cc
8g
8r
8g
8r
8g
=150
8g
8g
8r
8g
8r
8g
=151
8g
8g
8r
8g
8r
8g
=152
8g
8g
8r
8g
8r
8g
=153
8g
8g
8r
8g
8r
8g
=154
8a-
8a-
8r
8a-
8r
8a-
=155
8a-
8a-
8r
8a-
8r
8a-
=156
8g
8g
8r
8g
8r
8g
=157
8g
8g
8r
8g
8f
8f
=158
8r
8f
8f
8f
8r
8f
=159
8r
8e-
8r
8e-
8r
8e-
=160
8d
8g
8f
8e-
8d
8e-
=161
8d
8g
8f
8e-
8d
8e-
=162
8d
8e-
8d
8e-
8d
8e-
=163
8d
8c#
8d
8e
8f
8g
=164
4a
4a
4a
=165
2a
4g
=166
16g
8.f
4f
4f
=167
2f
4e
=168
8g
8f
4e
4d
=169
8e
8cc
8dd
8ee
8ff
8gg
=170
4aa
4aa
4aa
=171
4.aa
16bb
16aa
4gg
=172
16gg
8.ff
4ff
4ff
=173
2ff
4ee
=174
8gg
8ff
4ee
4dd
=175
8gg
8gg
8r
8ff
8r
8ee
=176
8r
8dd
8r
8cc
8r
8b
=177
16r
16ee
16gg
16ee
16r
16dd
16ff
16dd
16r
16cc
16ee
16cc
=178
16r
16f
16dd
16f
16r
16e
16cc
16e
16r
16d
16b
16d
=179
4cc
4r
8.ee
32dd
32cc
=180
2gg
8.bb
32aa
32gg
=181
2ccc
8.ee
32dd
32cc
=182
4gg
4gg
8.bb
32aa
32gg
=183
4ccc
4.eee
8gg#
=184
4aa
4.ccc
8ee
=185
8.ff
32ee
32dd
4gg
4bb
=186
4ccc
4c
4r
=187
*>B
2.g
=188
2ee
4dd
=189
4gg
4cc
4ee
=190
2ee
4dd
=191
4a
4dd
4ff
=192
4ee
4dd
4aa[
=193
4aa]
4gg
4b
=194
8cc
8g
8e
8g
8f
8d
=195
8.c
16G
4c
4e
=196
2e
4d
=197
4g
4c
4e
=198
2e
4d
=199
4A
4d
4f
=200
4e
4d
4a[
=201
4a]
4g
4B
=202
8c
8g
8r
8g
8r
8g
=203
8g
8g
8r
8g
8r
8g
=204
8g
8g
8r
8g
8r
8g
=205
8g
8g
8r
8g
8r
8g
=206
8g
8g
8r
8g
8r
8g
=207
8f#
8f#
8r
8f#
8r
8f#
=208
8g
8g
8r
8g
8r
8g
=209
8cc
8cc
8r
8cc
8r
8cc
=210
8b-
8b-
8r
8b-
8r
8b-
=211
8cc#
8cc#
8r
8cc#
8r
8cc#
=212
8dd
8dd
8r
8dd
8r
8dd
=213
8gg
8gg
8r
8gg
8r
8gg
=214
8ff
8ff
8r
8ff
8r
8ff
=215
8gg#
8gg#
8r
8gg#
8r
8gg#
=216
8aa
8aa
8gg
8ff
8ee
8ff
=217
8ee
8a
8g
8f
8e
8f
=218
8e
8f
8e
8f
8e
8f
=219
4e
4r
4r
=220
8e
8f
8e
8f
8e
8f
=221
4e
4r
4r
=222
8e
8f
8e
8f
8e
8f
=223
4e
2r
=224
8bb-
8aa
8bb-
8aa
8bb-
8aa
=225
4bb-
4r
4r
=226
2f
4a
=227
2cc
4a
=228
2b-
4gg
=229
8ff
8ee
4ee
4r
=230
4ff
4a
4dd
=231
4g
4.cc
8a
=232
2.f
=233
2.g
=234
4a
4b-
4dd
=235
8dd
8cc
8b-
8a
8g
8f
=236
4g
4b-
4e
=237
4f
4r
8.ccc
16bb-
=238
4aa
4aa
8.aa
16gg
=239
4ff
4ff
4ff
=240
4gg
4gg
4gg
=241
4gg
4aa
16ccc
16ddd
16ccc
16bb-
=242
4aa
4aa
16aa
16bb-
16aa
16gg
=243
4ff
4ff
4ff
=244
4gg
4bb-
4ee
=245
4ff
4r
4ccc
=246
4ff
4r
4cc
=247
4f
4r
4c#
=248
4.d
16f
16a
8dd
16a
16dd
=249
8ff
16dd
16ff
8aa
8aa
8ff
8dd
=250
4.bb-
16aa
16gg
16ff
16ee
16dd
16cc#
=251
4.bb-
16aa
16gg
16ff
16ee
16dd
16cc#
=252
4.dd
16f
16a
8dd
16a
16dd
=253
8ff
16dd
16ff
8aa
8aa
8ff
8dd
=254
4.aa-
16gg
16ff
16ee-
16dd
16cc
16b
=255
4.aa-
16gg
16ff
16ee-
16dd
16cc
16b
=256
4.cc
16e-
16g
8cc
16g
16cc
=257
8ee-
16cc
16ee-
8gg
8gg
8ee-
8cc
=258
4.gg-
16ff
16ee-
16dd-
16cc
16b-
16a
=259
4.gg-
16ff
16ee-
16dd-
16cc
16b-
16a
=260
[4b-
16b-]
16f
16b-
16f
16dd-
16b-
16dd-
16b-
=261
16ff
16dd-
16ff
16dd-
4bb-
4r
=262
[4a
16a]
16f
16a
16f
16cc
16a
16cc
16a
=263
16ff
16cc
16ff
16cc
4aa
4r
=264
[4a-
16a-]
16f
16a-
16f
16dd
16a-
16dd
16a-
=265
16ff
16dd
16ff
16dd
4aa-
4ff
=266
2ccc
16bb-
16aa-
16gg
16ff
=267
2ccc
16bb-
16aa-
16gg
16ff
=268
4.cc
16dd-
16cc
16b-
16a-
16g
16f
=269
4cc
4c
4r
=270
8a
8r
8a
8r
8a
8r
=271
4.cc
8b-
4g
=272
8g
8f
4.f
8g
=273
2g
4a
=274
4.b-
8b-
8cc
8dd
=275
8dd
8cc
8b
8cc
8b-
8g
=276
8g#
8a
8b-
8a
8cc
8b-
=277
8a
8g
8f
8e
8d
8c
=278
8gg#
8aa
8gg#
8aa
8gg#
8aa
=279
8bb
8ccc
8bb
8ccc
8bb-
8gg
=280
8gg
8ff
8gg
8ff
8aa
8gg
=281
4.gg
8gg#
4aa
=282
4.bb-
8bb-
8ccc
8ddd
=283
8ddd
8ccc
8bb
8ccc
8bb-
8gg
=284
8gg#
8aa
8ccc
8bb-
8gg
8ee
=285
8ff
8cc
8r
8cc
8r
8cc
=286
8cc
8cc
8r
8cc
8r
8cc
=287
8cc
8cc
8r
8cc
8r
8cc
=288
8cc
8cc
8r
8cc
8r
8cc
=289
8cc
8cc
8r
8cc
8r
8cc
=290
8dd-
8dd-
8r
8dd-
8r
8dd-
=291
8dd-
8dd-
8r
8dd-
8r
8dd-
=292
8cc
8cc
8r
8cc
8r
8cc
=293
8cc
8cc
8r
8cc
8b-
8b-
=294
8r
8b-
8b-
8b-
8r
8b-
=295
8r
8a-
8r
8a-
8r
8a-
=296
8g
8cc
8b-
8a-
8g
8a-
=297
8g
8cc
8b-
8a-
8g
8a-
=298
8g
8a-
8g
8a-
8g
8a-
=299
8g
8f#
8g
8a
8b-
8cc
=300
4dd
4dd
4dd
=301
2dd
4cc
=302
16cc
8.b-
4b-
4b-
=303
2b-
4a
=304
8cc
8b-
4a
4g
=305
8a
8ff
8gg
8aa
8bb-
8ccc
=306
4ddd
4ddd
4ddd
=307
4.ddd
16eee
16ddd
4ccc
=308
16ccc
8.bb-
4bb-
4bb-
=309
2bb-
4aa
=310
8ccc
8bb-
4aa
4gg
=311
8ccc
8ccc
8r
8bb-
8r
8aa
=312
8r
8gg
8r
8ff
8r
8ee
=313
16r
16aa
16ccc
16aa
16r
16gg
16bb-
16gg
16r
16ff
16aa
16ff
=314
16r
16b-
16gg
16b-
16r
16a
16ff
16a
16r
16g
16ee
16g
=315
4ff
4r
8.a
32g
32f
=316
2cc
8.ee
32dd
32cc
=317
2ff
8.aa
32gg
32ff
=318
4ccc
4ccc
8.eee
32ddd
32ccc
=319
4fff
4.aa
8cc#
=320
4dd
4.ff
8a
=321
8.b-
32a
32g
4cc
4ee
=322
4ff
4f
4r
=323
*>B
2.g
=324
2ee
4dd
=325
4gg
4cc
4ee
=326
2ee
4dd
=327
4a
4dd
4ff
=328
4ee
4dd
4aa[
=329
4aa]
4gg
4b
=330
8cc
8g
8e
8g
8f
8d
=331
8.c
16G
4c
4e
=332
2e
4d
=333
4g
4c
4e
=334
2e
4d
=335
4A
4d
4f
=336
4e
4d
4a[
=337
4a]
4g
4B
=338
8c
8g
8r
8g
8r
8g
=339
8g
8g
8r
8g
8r
8g
=340
8g
8g
8r
8g
8r
8g
=341
8g
8g
8r
8g
8r
8g
=342
8g
8g
8r
8g
8r
8g
=343
8f#
8f#
8r
8f#
8r
8f#
=344
8g
8g
8r
8g
8r
8g
=345
8cc
8cc
8r
8cc
8r
8cc
=346
8b-
8b-
8r
8b-
8r
8b-
=347
8cc#
8cc#
8r
8cc#
8r
8cc#
=348
8dd
8dd
8r
8dd
8r
8dd
=349
8gg
8gg
8r
8gg
8r
8gg
=350
8ff
8ff
8r
8ff
8r
8ff
=351
8gg#
8gg#
8r
8gg#
8r
8gg#
=352
8aa
8aa
8gg
8ff
8ee
8ff
=353
8ee
8a
8g
8f
8e
8f
=354
8e
8f
8e
8f
8e
8f
=355
4e
4r
4r
=356
8e
8f
8e
8f
8e
8f
=357
4e
4r
4r
=358
8e
8f
8e
8f
8e
8f
=359
4e
2r
=360
8bb-
8aa
8bb-
8aa
8bb-
8aa
=361
4bb-
4r
4r
=362
2f
4a
=363
2cc
4a
=364
2b-
4gg
=365
8ff
8ee
4ee
4r
=366
4ff
4a
4dd
=367
4g
4.cc
8a
=368
2.f
=369
2.g
=370
4a
4b-
4dd
=371
8dd
8cc
8b-
8a
8g
8f
=372
4g
4b-
4e
=373
4f
4r
8.ccc
16bb-
=374
4aa
4aa
8.aa
16gg
=375
4ff
4ff
4ff
=376
4gg
4gg
4gg
=377
4gg
4aa
16ccc
16ddd
16ccc
16bb-
=378
4aa
4aa
16aa
16bb-
16aa
16gg
=379
4ff
4ff
4ff
=380
4gg
4bb-
4ee
=381
4ff
4r
4ccc
=382
4ff
4r
4cc
=383
4f
4r
4c#
=384
4.d
16f
16a
8dd
16a
16dd
=385
8ff
16dd
16ff
8aa
8aa
8ff
8dd
=386
4.bb-
16aa
16gg
16ff
16ee
16dd
16cc#
=387
4.bb-
16aa
16gg
16ff
16ee
16dd
16cc#
=388
4.dd
16f
16a
8dd
16a
16dd
=389
8ff
16dd
16ff
8aa
8aa
8ff
8dd
=390
4.aa-
16gg
16ff
16ee-
16dd
16cc
16b
=391
4.aa-
16gg
16ff
16ee-
16dd
16cc
16b
=392
4.cc
16e-
16g
8cc
16g
16cc
=393
8ee-
16cc
16ee-
8gg
8gg
8ee-
8cc
=394
4.gg-
16ff
16ee-
16dd-
16cc
16b-
16a
=395
4.gg-
16ff
16ee-
16dd-
16cc
16b-
16a
=396
[4b-
16b-]
16f
16b-
16f
16dd-
16b-
16dd-
16b-
=397
16ff
16dd-
16ff
16dd-
4bb-
4r
=398
[4a
16a]
16f
16a
16f
16cc
16a
16cc
16a
=399
16ff
16cc
16ff
16cc
4aa
4r
=400
[4a-
16a-]
16f
16a-
16f
16dd
16a-
16dd
16a-
=401
16ff
16dd
16ff
16dd
4aa-
4ff
=402
2ccc
16bb-
16aa-
16gg
16ff
=403
2ccc
16bb-
16aa-
16gg
16ff
=404
4.cc
16dd-
16cc
16b-
16a-
16g
16f
=405
4cc
4c
4r
=406
8a
8r
8a
8r
8a
8r
=407
4.cc
8b-
4g
=408
8g
8f
4.f
8g
=409
2g
4a
=410
4.b-
8b-
8cc
8dd
=411
8dd
8cc
8b
8cc
8b-
8g
=412
8g#
8a
8b-
8a
8cc
8b-
=413
8a
8g
8f
8e
8d
8c
=414
8gg#
8aa
8gg#
8aa
8gg#
8aa
=415
8bb
8ccc
8bb
8ccc
8bb-
8gg
=416
8gg
8ff
8gg
8ff
8aa
8gg
=417
4.gg
8gg#
4aa
=418
4.bb-
8bb-
8ccc
8ddd
=419
8ddd
8ccc
8bb
8ccc
8bb-
8gg
=420
8gg#
8aa
8ccc
8bb-
8gg
8ee
=421
8ff
8cc
8r
8cc
8r
8cc
=422
8cc
8cc
8r
8cc
8r
8cc
=423
8cc
8cc
8r
8cc
8r
8cc
=424
8cc
8cc
8r
8cc
8r
8cc
=425
8cc
8cc
8r
8cc
8r
8cc
=426
8dd-
8dd-
8r
8dd-
8r
8dd-
=427
8dd-
8dd-
8r
8dd-
8r
8dd-
=428
8cc
8cc
8r
8cc
8r
8cc
=429
8cc
8cc
8r
8cc
8b-
8b-
=430
8r
8b-
8b-
8b-
8r
8b-
=431
8r
8a-
8r
8a-
8r
8a-
=432
8g
8cc
8b-
8a-
8g
8a-
=433
8g
8cc
8b-
8a-
8g
8a-
=434
8g
8a-
8g
8a-
8g
8a-
=435
8g
8f#
8g
8a
8b-
8cc
=436
4dd
4dd
4dd
=437
2dd
4cc
=438
16cc
8.b-
4b-
4b-
=439
2b-
4a
=440
8cc
8b-
4a
4g
=441
8a
8ff
8gg
8aa
8bb-
8ccc
=442
4ddd
4ddd
4ddd
=443
4.ddd
16eee
16ddd
4ccc
=444
16ccc
8.bb-
4bb-
4bb-
=445
2bb-
4aa
=446
8ccc
8bb-
4aa
4gg
=447
8ccc
8ccc
8r
8bb-
8r
8aa
=448
8r
8gg
8r
8ff
8r
8ee
=449
16r
16aa
16ccc
16aa
16r
16gg
16bb-
16gg
16r
16ff
16aa
16ff
=450
16r
16b-
16gg
16b-
16r
16a
16ff
16a
16r
16g
16ee
16g
=451
4ff
4r
8.a
32g
32f
=452
2cc
8.ee
32dd
32cc
=453
2ff
8.aa
32gg
32ff
=454
4ccc
4ccc
8.eee
32ddd
32ccc
=455
4fff
4.aa
8cc#
=456
4dd
4.ff
8a
=457
8.b-
32a
32g
4cc
4ee
=458
4ff
4f
4r
==
*-
